X: 28546
T: Munsters Theme Song
R: polka
M: 2/4
K: Aminor
A2AA|^gaa2|AAAA|^gaa2|
|:A2cA|^dea2|fed2|dde>d|c2dc|
BA^G2|A2AA|^gaa2|AAAA|^gaa2:|
|:g2g2|g2f2|efde|c2c2|d2d2|d2c2|
BcAB|^G2^G2|A2cA|^dea2|fed2|dde>d|
[1c2dc|BA^G2|A2^G2|A2ef:|
[2c2A2|A2e>d|c2A2|A2(3Ace|a4||

